vessel_track/img/map-ico.svg

<svg width="24" height="26" viewBox="0 0 24 26" fill="none" xmlns="http://www.w3.org/2000/svg">
<path d="M15.6667 25V3.4M15.6667 25L8.33333 22.6M15.6667 25L22.311 22.8255C22.722 22.691 23 22.3075 23 21.8751V2.37947C23 1.69921 22.3355 1.21748 21.689 1.42907L15.6667 3.4M15.6667 3.4L8.33333 1M8.33333 22.6V1M8.33333 22.6L2.31104 24.5709C1.66452 24.7825 1 24.3008 1 23.6205V4.12492C1 3.69248 1.27797 3.30903 1.68896 3.17452L8.33333 1" stroke="white" stroke-width="2" stroke-linecap="round" stroke-linejoin="round"/>
</svg>

<svg width="24" height="26" fill="none" xmlns="http://www.w3.org/2000/svg"><path d="M15.667 25V3.4m0 21.6l-7.334-2.4m7.334 2.4l6.644-2.174a1 1 0 00.689-.95V2.378a1 1 0 00-1.311-.95L15.667 3.4m0 0L8.333 1m0 21.6V1m0 21.6l-6.022 1.97A1 1 0 011 23.62V4.125a1 1 0 01.689-.95L8.333 1" stroke="#fff" stroke-width="2" stroke-linecap="round" stroke-linejoin="round"/></svg>
